lib/svgs/rss.svg

<svg xmlns="http://www.w3.org/2000/svg" viewBox="0 0 20 20">
    <path fill="#000" fill-rule="evenodd" d="M3,13.2037562 L3,17 L6.80448333,17 C6.80448333,16.4533036 6.71316949,15.9370828 6.56092783,15.4815025 C6.34791416,15.0259221 6.07397266,14.6311376 5.73925916,14.2666733 C5.37400383,13.9326847 4.94782067,13.6898122 4.52179333,13.4771044 C4.06522417,13.2948722 3.547883,13.2037562 3,13.2037562 M3,8.10187808 L3,10.6224969 C3.88275233,10.6224969 4.734807,10.8047291 5.52608967,11.1083975 C6.28698633,11.4728618 6.95656916,11.9282866 7.53483816,12.4749831 C8.08272116,13.0519997 8.5087485,13.7504526 8.87400383,14.5400215 C9.20871733,15.2992703 9.360959,16.1191595 9.360959,17 L11.9478207,17 C11.9478207,15.7548507 11.704421,14.6008174 11.2174658,13.5379002 C10.7305107,12.4446629 10.1218557,11.4728618 9.33041717,10.6832928 C8.5087485,9.89356834 7.59576599,9.25591133 6.53054183,8.80033097 C5.43477583,8.37522629 4.24785183,8.10187808 3,8.10187808 M3,3 L3,5.58125923 C4.58272116,5.58125923 6.07397266,5.88492764 7.44352433,6.46194427 C8.843462,7.03896089 10.0913138,7.85900554 11.095766,8.92176723 C12.1304483,9.92404403 12.9522728,11.1387177 13.5609278,12.5357789 C14.1391968,13.9023645 14.4435243,15.4207066 14.4435243,17 L17,17 C17,15.0563978 16.6652865,13.2342318 15.9043898,11.5639778 C15.1738792,9.86324815 14.1695828,8.37522629 12.891345,7.09975677 C11.674035,5.85460745 10.1826277,4.82201046 8.47836249,4.09323737 C6.7739415,3.3643088 4.91743466,3 3,3"/>
</svg>

<svg xmlns="http://www.w3.org/2000/svg" viewBox="0 0 20 20">
    <path fill="#000" fill-rule="evenodd" d="M3 13.204V17h3.804c0-.547-.09-1.063-.243-1.518a4.75 4.75 0 0 0-.822-1.215 5.23 5.23 0 0 0-1.217-.79A4.11 4.11 0 0 0 3 13.204zm0-5.102v2.52a7.05 7.05 0 0 1 2.526.486c.761.365 1.43.82 2.009 1.367a7.556 7.556 0 0 1 1.339 2.065c.335.76.487 1.58.487 2.46h2.587c0-1.245-.244-2.4-.73-3.462a9.337 9.337 0 0 0-1.888-2.855A9.262 9.262 0 0 0 6.53 8.8 9.75 9.75 0 0 0 3 8.102zM3 3v2.581c1.583 0 3.074.304 4.444.88 1.4.578 2.647 1.398 3.652 2.46a11.211 11.211 0 0 1 2.465 3.615c.578 1.366.883 2.885.883 4.464H17c0-1.944-.335-3.766-1.096-5.436A14.104 14.104 0 0 0 12.891 7.1 13.688 13.688 0 0 0 3 3z"/>
</svg>
